X:1517
T:Tent at the Fair, The
R:reel
N:"collected from J. O'Neill"
B:"O'Neill's Dance Music of Ireland, 1517"
T: an bo.t ag an aona.c.
Z:transcribed by John B. Walsh, walsh@math.ubc.ca 8/23/96
M:C|
L:1/8
K:D
A "Segno"|d2 (AF) DdAF|d2 (AF) DecA|d2 (AF) DdAF|ec ((3ABc) d2d Hx:|
A|d2 (fd) adfd|adfd cdef|d2 (fd) adfa|gfed cdef|
d2 ((3fed) adfd|adfd cdef|afge fdef|gfed cABc "Segno"||


